ix/refresh-square-2_linear.svg

<svg viewBox="0 0 24 24" fill="none" xmlns="http://www.w3.org/2000/svg" height="1em" width="1em">
  <path d="M9 22h6c5 0 7-2 7-7V9c0-5-2-7-7-7H9C4 2 2 4 2 9v6c0 5 2 7 7 7Z" stroke="#292D32" stroke-width="1.5" stroke-linecap="round" stroke-linejoin="round"/>
  <path d="M17.5 12c0 3.04-2.46 5.5-5.5 5.5s-4.89-3.06-4.89-3.06m0 0h2.48m-2.48 0v2.75M6.5 12c0-3.04 2.44-5.5 5.5-5.5 3.67 0 5.5 3.06 5.5 3.06m0 0V6.81m0 2.75h-2.44" stroke="#292D32" stroke-width="1.5" stroke-linecap="round" stroke-linejoin="round"/>
</svg>

<svg viewBox="0 0 24 24" fill="none" xmlns="http://www.w3.org/2000/svg" height="1em" width="1em">
  <path d="M9 22H15C20 22 22 20 22 15V9C22 4 20 2 15 2H9C4 2 2 4 2 9V15C2 20 4 22 9 22Z" stroke="#292D32" stroke-width="1.5" stroke-linecap="round" stroke-linejoin="round"/>
  <path d="M17.5 12C17.5 15.04 15.04 17.5 12 17.5C8.96 17.5 7.10999 14.44 7.10999 14.44M7.10999 14.44H9.59M7.10999 14.44V17.19M6.5 12C6.5 8.96 8.94 6.5 12 6.5C15.67 6.5 17.5 9.56 17.5 9.56M17.5 9.56V6.81M17.5 9.56H15.06" stroke="#292D32" stroke-width="1.5" stroke-linecap="round" stroke-linejoin="round"/>
</svg>
